X: 030490
T: Custom House
S: "Treoir" 
Z: B.Black
M: 6/8
L: 1/8
R: jig 
K: D
A |: BAF ADD | FDD ADD | BAF ADD | FED EFA |
BAF ADD | FDF d2 e | fed dcB | AGF EFA :|
de/f/e d2 B | AFd AFA | de/f/e d2 f | ede fdB |
de/f/e d2 B | AFA ABd | gfe fdB | AGF EFA :|
